public/svgs/logo-title.svg

<svg width="277" height="48" viewBox="0 0 277 48" fill="none" xmlns="http://www.w3.org/2000/svg">
<path d="M261.766 29.3845V33.301H248.189C246.507 33.301 245.559 34.1318 245.346 35.8408H261.837V38.9977C261.837 43.65 259.325 45.9999 254.302 45.9999H241.507V42.0597H255.155C256.79 42.0597 257.714 41.1814 257.975 39.5674H241.507V36.3867C241.507 31.7344 244.019 29.3845 249.066 29.3845H261.766Z" fill="#C11111"/>
<path d="M238.206 29.3845V45.9999H233.941C229.392 39.781 225.008 35.7221 220.696 34.0843C220.388 33.9894 220.009 33.8232 219.606 33.6808C219.654 34.2742 219.677 34.6777 219.677 34.8439V45.9999H215.744V29.3845H219.227C224.535 31.0935 229.463 34.9388 233.609 39.4487L234.344 40.232C234.296 39.7335 234.273 39.3775 234.273 39.1401V29.3845H238.206Z" fill="#C11111"/>
<path d="M208.374 37.6685V33.301H198.754C195.437 33.301 194.418 34.3217 194.418 37.7397V42.0597H204.038C207.284 42.0597 208.374 41.1102 208.374 37.6685ZM198.683 29.3845H212.402V37.7397C212.402 42.9142 209.393 45.9999 204.133 45.9999H190.39V37.6685C190.39 32.5889 193.447 29.3845 198.683 29.3845Z" fill="#C11111"/>
<path d="M173.865 29.3845H187.276V33.301H173.936C170.572 33.301 169.6 34.2979 169.6 37.8109V42.0597H183.342V39.5674H180.333V35.8408H187.37V45.9999H165.596V37.6685C165.596 32.4702 168.581 29.3845 173.865 29.3845Z" fill="#C11111"/>
<path d="M158.265 35.912V33.301H150.967C146.134 33.301 145.352 34.3691 145.02 35.912H158.265ZM162.317 29.3845V45.9999H158.265V39.5674H144.76V45.9999H140.732V37.6685C140.732 32.4702 143.741 29.3845 149.001 29.3845H162.317Z" fill="#C11111"/>
<path d="M121.675 39.5674V35.8408H131.105C132.74 35.8408 133.664 34.9388 133.901 33.301H119.803V45.9999H115.775V29.3845H137.81V32.5652C137.81 36.7665 135.773 39.0689 131.697 39.4962L138 45.9999H133.119L126.722 39.5674H121.675Z" fill="#C11111"/>
<path d="M108.894 37.6685V33.301H92V29.3845H112.922V37.7397C112.922 42.9142 109.913 45.9999 104.652 45.9999H92V35.8408H96.0279V42.0597H104.558C107.448 42.0597 108.894 40.6118 108.894 37.6685Z" fill="#C11111"/>
<path d="M256.102 10H260.13V22.6752H268.778C270.911 22.6752 272.261 21.8444 272.83 20.1829H277C276.289 24.4317 273.327 26.6154 268.849 26.6154H256.102V10Z" fill="#C11111"/>
<path d="M248.548 16.5275V13.9165H241.25C236.417 13.9165 235.635 14.9846 235.303 16.5275H248.548ZM252.6 10V26.6154H248.548V20.1829H235.043V26.6154H231.015V18.284C231.015 13.0857 234.024 10 239.284 10H252.6Z" fill="#C11111"/>
<path d="M227.849 10V13.9165H220.219V26.6154H216.191V13.9165H213.396C211.642 13.9165 210.694 14.7473 210.552 16.4563H206.738C207.093 12.1363 209.51 10 214.035 10H227.849Z" fill="#C11111"/>
<path d="M187.338 20.1829V16.4563H196.768C198.403 16.4563 199.327 15.5543 199.564 13.9165H185.466V26.6154H181.438V10H203.473V13.1807C203.473 17.382 201.435 19.6844 197.36 20.1116L203.663 26.6154H198.782L192.384 20.1829H187.338Z" fill="#C11111"/>
<path d="M173.987 18.284V13.9165H164.367C161.05 13.9165 160.031 14.9371 160.031 18.3552V22.6752H169.651C172.897 22.6752 173.987 21.7257 173.987 18.284ZM164.296 10H178.014V18.3552C178.014 23.5297 175.005 26.6154 169.745 26.6154H156.003V18.284C156.003 13.2044 159.059 10 164.296 10Z" fill="#C11111"/>
<path d="M137.915 26.6154V15.9578H141.966V26.6154H137.915ZM127.75 26.6154V10H144.383C149.311 10 152.676 13.1332 152.676 17.6193V26.6154H148.648V18.3077C148.648 15.3644 147.226 13.9165 144.383 13.9165H131.754V26.6154H127.75Z" fill="#C11111"/>
<path d="M109.614 26.6154V15.9578H113.666V26.6154H109.614ZM99.4498 26.6154V10H116.083C121.011 10 124.376 13.1332 124.376 17.6193V26.6154H120.348V18.3077C120.348 15.3644 118.926 13.9165 116.083 13.9165H103.454V26.6154H99.4498Z" fill="#C11111"/>
<path d="M96.0279 10V26.6154H92V10H96.0279Z" fill="#C11111"/>
<path d="M76.2782 14.6656C73.3186 11.6928 69.6882 9.90917 65.8604 9.23534C59.9807 8.24443 49.7998 8.36334 49.7998 8.36334C54.9692 6.57969 61.0462 7.41206 61.0462 7.41206C55.9952 5.15277 45.9326 6.73823 45.9326 6.73823C50.589 5.46986 53.5091 5.31131 57.8499 5.82659C57.8499 5.82659 52.8383 3.5673 43.3677 5.07349C42.4601 5.1924 41.6708 6.22296 41.1578 6.57969C39.8951 7.41206 38.9086 7.76879 37.4485 7.21387C36.7382 6.93642 35.9884 6.6986 35.1203 6.3815C35.8701 5.66804 36.6987 5.54913 37.6063 5.66804C38.2772 5.74732 39.0269 5.66804 39.6583 5.54913C40.7632 5.31131 41.3157 4.55822 42.7363 4.47894C42.7363 4.47894 45.3802 4.47894 47.8268 4.3204C50.2733 4.20149 52.2859 2.93311 53.1145 2.3782C49.5236 2.33856 46.2483 3.5673 42.4995 3.52766C46.2878 3.28984 48.4187 2.14038 51.102 0C48.4581 0.990917 46.8797 2.25929 43.9201 2.29893C42.2627 2.33856 40.5659 2.73493 38.9875 3.05202C37.6853 3.28984 36.6593 4.71676 35.436 5.27168C34.1338 5.82659 32.8316 5.5095 31.9634 4.59785C30.8191 5.78695 30.7796 7.17424 31.7267 8.48225C32.0818 8.00661 32.5159 7.49133 33.0683 6.85714C33.4235 7.45169 33.6602 7.72915 33.8181 7.96697C34.923 7.37242 36.462 7.76879 37.2117 8.7597C37.7247 9.39389 37.2117 9.67134 36.8566 9.9488C35.3965 11.019 34.6468 10.7415 33.9759 10.0677L33.4629 11.2568L31.8845 11.2172L34.7652 14.1503L34.8835 13.0008L36.2252 12.9612C36.7382 11.7721 38.0404 11.6532 38.948 12.0495C39.8951 12.4855 40.5265 13.5954 41.2368 14.3485C41.2762 14.2692 41.3157 14.0314 41.3551 13.7539C41.7892 12.3666 42.8152 12.0892 43.8807 13.0405L45.4986 14.6259C46.4456 15.5376 46.4851 17.0834 45.5775 18.0347L35.1598 28.4988L35.0808 28.578L27.2676 36.3468C22.9268 40.7069 15.8633 40.7069 11.5621 36.3468C7.22136 31.9868 7.22136 24.8918 11.5621 20.5714C13.7324 18.3914 16.5736 17.3212 19.4148 17.3212C22.256 17.3212 25.0972 18.3914 27.2676 20.5714L33.3051 26.6358L39.1453 20.7696L33.1078 14.7052C25.5313 7.09496 13.2194 7.09496 5.68239 14.7052C2.01251 18.3914 0 23.2667 0 28.4988C0 33.6912 2.01251 38.6061 5.68239 42.2923C9.47064 46.0974 14.4427 48 19.4148 48C24.3869 48 29.359 46.0974 33.1473 42.2923L46.8797 28.4988L46.9586 28.4195L54.7324 20.6111C59.0732 16.251 66.1367 16.251 70.4379 20.6111C74.7786 24.9711 74.7786 32.0661 70.4379 36.3865C68.2676 38.5665 65.4264 39.6367 62.5852 39.6367C59.744 39.6367 56.9028 38.5665 54.7324 36.3865L48.6949 30.322L42.8547 36.1883L48.8922 42.2527C56.4687 49.8629 68.7806 49.8629 76.3176 42.2527C79.9875 38.5665 82 33.6912 82 28.4591C81.9605 23.2667 79.948 18.3518 76.2782 14.6656Z" fill="url(#paint0_linear_910_2154)"/>
<defs>
<linearGradient id="paint0_linear_910_2154" x1="25.9195" y1="47.7519" x2="25.9195" y2="1.37746" gradientUnits="userSpaceOnUse">
<stop stop-color="#C11111"/>
<stop offset="1" stop-color="#E63F16"/>
</linearGradient>
</defs>
</svg>

<svg xmlns="http://www.w3.org/2000/svg" width="277" height="48" fill="none" viewBox="0 0 277 48"><path fill="#c11111" d="M261.766 29.385V33.3h-13.577c-1.682 0-2.63.83-2.843 2.54h16.491v3.157c0 4.652-2.512 7.002-7.535 7.002h-12.795v-3.94h13.648c1.635 0 2.559-.879 2.82-2.493h-16.468v-3.18c0-4.653 2.512-7.003 7.559-7.003zM238.206 29.385V46h-4.265c-4.549-6.219-8.933-10.278-13.245-11.916-.308-.095-.687-.26-1.09-.403.048.593.071.997.071 1.163V46h-3.933V29.385h3.483c5.308 1.708 10.236 5.554 14.382 10.064l.735.783a13 13 0 0 1-.071-1.092v-9.756zM208.374 37.669V33.3h-9.62c-3.317 0-4.336 1.02-4.336 4.439v4.32h9.62c3.246 0 4.336-.95 4.336-4.392m-9.691-8.284h13.719v8.355c0 5.174-3.009 8.26-8.269 8.26H190.39v-8.331c0-5.08 3.057-8.284 8.293-8.284M173.865 29.385h13.411V33.3h-13.34c-3.364 0-4.336.997-4.336 4.51v4.249h13.742v-2.493h-3.009v-3.726h7.037V46h-21.774v-8.331c0-5.199 2.985-8.284 8.269-8.284M158.265 35.912v-2.611h-7.298c-4.833 0-5.615 1.068-5.947 2.611zm4.052-6.527V46h-4.052v-6.433H144.76V46h-4.028v-8.331c0-5.199 3.009-8.284 8.269-8.284zM121.675 39.567v-3.726h9.43c1.635 0 2.559-.902 2.796-2.54h-14.098V46h-4.028V29.385h22.035v3.18c0 4.202-2.037 6.504-6.113 6.931L138 46h-4.881l-6.397-6.433zM108.894 37.669V33.3H92v-3.917h20.922v8.356c0 5.174-3.009 8.26-8.27 8.26H92V35.84h4.028v6.22h8.53c2.89 0 4.336-1.448 4.336-4.392M256.102 10h4.028v12.675h8.648q3.199 0 4.052-2.492H277c-.711 4.249-3.673 6.432-8.151 6.432h-12.747zM248.548 16.528v-2.611h-7.298c-4.833 0-5.615 1.068-5.947 2.61zM252.6 10v16.615h-4.052v-6.432h-13.505v6.432h-4.028v-8.331c0-5.198 3.009-8.284 8.269-8.284zM227.849 10v3.916h-7.63v12.7h-4.028v-12.7h-2.795c-1.754 0-2.702.831-2.844 2.54h-3.814c.355-4.32 2.772-6.456 7.297-6.456zM187.338 20.183v-3.727h9.43c1.635 0 2.559-.902 2.796-2.54h-14.098v12.7h-4.028V10h22.035v3.18c0 4.202-2.038 6.504-6.113 6.932l6.303 6.503h-4.881l-6.398-6.432zM173.987 18.284v-4.367h-9.62c-3.317 0-4.336 1.02-4.336 4.438v4.32h9.62c3.246 0 4.336-.95 4.336-4.391M164.296 10h13.718v8.355c0 5.175-3.009 8.26-8.269 8.26h-13.742v-8.331c0-5.08 3.056-8.284 8.293-8.284M137.915 26.615V15.958h4.051v10.657zm-10.165 0V10h16.633c4.928 0 8.293 3.133 8.293 7.62v8.995h-4.028v-8.307c0-2.944-1.422-4.392-4.265-4.392h-12.629v12.7zM109.614 26.615V15.958h4.052v10.657zm-10.164 0V10h16.633c4.928 0 8.293 3.133 8.293 7.62v8.995h-4.028v-8.307c0-2.944-1.422-4.392-4.265-4.392h-12.629v12.7zM96.028 10v16.615H92V10z"/><path fill="url(#a)" d="M76.278 14.666a19.3 19.3 0 0 0-10.418-5.43c-5.88-.992-16.06-.873-16.06-.873 5.17-1.783 11.246-.95 11.246-.95-5.05-2.26-15.113-.675-15.113-.675 4.656-1.268 7.576-1.427 11.917-.911 0 0-5.012-2.26-14.482-.754-.908.12-1.697 1.15-2.21 1.507-1.263.832-2.25 1.189-3.71.634-.71-.278-1.46-.515-2.328-.833.75-.713 1.579-.832 2.486-.713.671.08 1.42 0 2.052-.119 1.105-.238 1.658-.99 3.078-1.07 0 0 2.644 0 5.09-.159 2.447-.119 4.46-1.387 5.288-1.942-3.59-.04-6.866 1.19-10.614 1.15C46.287 3.29 48.418 2.14 51.102 0c-2.644.99-4.222 2.26-7.182 2.299-1.657.04-3.354.436-4.933.753-1.302.238-2.328 1.665-3.551 2.22-1.302.555-2.604.237-3.473-.674-1.144 1.189-1.183 2.576-.236 3.884.355-.475.789-.99 1.341-1.625.355.595.592.872.75 1.11 1.105-.595 2.644-.198 3.394.793.513.634 0 .911-.355 1.189-1.46 1.07-2.21.793-2.881.119l-.513 1.189-1.579-.04 2.881 2.933.118-1.15 1.342-.039c.513-1.189 1.815-1.308 2.723-.912.947.437 1.578 1.546 2.289 2.3.04-.08.079-.318.118-.595.434-1.387 1.46-1.665 2.526-.713l1.618 1.585c.947.912.986 2.457.078 3.409L35.16 28.499l-.08.079-7.812 7.769c-4.341 4.36-11.405 4.36-15.706 0-4.34-4.36-4.34-11.455 0-15.776a11.03 11.03 0 0 1 7.853-3.25c2.841 0 5.682 1.07 7.853 3.25l6.037 6.065 5.84-5.866-6.037-6.065c-7.577-7.61-19.889-7.61-27.426 0C2.012 18.391 0 23.267 0 28.5c0 5.192 2.013 10.107 5.682 13.793A19.32 19.32 0 0 0 19.415 48c4.972 0 9.944-1.903 13.732-5.708L46.88 28.5l.079-.08 7.773-7.808c4.341-4.36 11.405-4.36 15.706 0 4.34 4.36 4.34 11.455 0 15.775a11.03 11.03 0 0 1-7.853 3.25c-2.841 0-5.682-1.07-7.853-3.25l-6.037-6.064-5.84 5.866 6.037 6.065c7.577 7.61 19.889 7.61 27.426 0C79.988 38.566 82 33.69 82 28.459c-.04-5.192-2.052-10.107-5.722-13.793"/><defs><linearGradient id="a" x1="25.919" x2="25.919" y1="47.752" y2="1.377" gradientUnits="userSpaceOnUse"><stop stop-color="#c11111"/><stop offset="1" stop-color="#e63f16"/></linearGradient></defs></svg>
